X:1
T:Rio de Janeiro, 87.87 D
T:Rio de Janeiro, 87.87 D
T:John Robson Sweney, 1887
T:Public Domain Courtesy of the Cyber Hymnal™
C:John Robson Sweney, 1887
Z:Public Domain
Z:Courtesy of the Cyber Hymnal™
%%score ( 1 2 ) ( 3 4 )
L:1/8
Q:1/4=110
M:9/8
K:C
V:1 treble 
V:2 treble 
V:3 bass 
V:4 bass 
V:1
 [EG]2 [EG] | [Ec]3- [Ec]2 [Ec] (dc)[FA] | [EG]3 [CE]3 [B,D]2 [CE] | %3
 [B,F]3- [B,F]2 [B,F] [DB]2 [FA] | [EG]6 [EG]2 [EG] | [Ec]3- [Ec]2 [Ge] (dc)[FA] | %6
 [EG]3 [CE]3 C2 [B,D] | [CE]2 [FA] [EG]3 [FB]3 | [Ec]6 G2 G | d3- [Fd]2 [E^c] (de)[Fd] | %10
 [Ec]3 [EG]3 E2 E | A3- [EA]2 [Ec] [EB]2 A | [^GB]6 A2 =G | c3- [Ec]2 [Gc] [Gd]2 [Ge] | %14
 [Ff]3 [FA]3 (dc)A | [EG]2 [Ec] e3 d3 | [Ec]6 |] %17
V:2
 x3 | x6 F2 x | x9 | x9 | x9 | x6 F2 x | x6 C2 x | x9 | x9 | (F2 F x F2) x3 | x9 | (E2 E x3 A) x2 | %12
 x9 | E2 E x6 | x9 | x3 (G2 G) (F2 F) | x6 |] %17
V:3
 [C,C]2 [C,C] | [C,G,]3- [C,G,]2 [C,G,] [F,A,]2 [F,C] | [C,C]3 [C,G,]3 [F,G,]2 [E,G,] | %3
 [D,G,]3- [D,G,]2 [D,G,] [G,,G,]2 [G,,B,] | [C,C]6 [C,C]2 [C,C] | %5
 [C,G,]3- [C,G,]2 [C,G,] [F,A,]2 [F,C] | [C,C]3 [C,G,]3 [E,G,]2 [D,G,] | %7
 [C,C]2 [F,C] [G,C]3 [G,,D]3 | [C,C]6 z3 | ([G,B,]2 [G,B,] [G,B,]2) [G,^A,] [G,B,]2 [G,B,] | %10
 [C,C]3 [C,C]3 z3 | ([A,C]2 [A,C] [A,C]2) [A,E] [^G,D]2 [A,C] | [E,E]6 z3 | %13
 ([C,G,]2 [C,G,] [C,G,]2) [CE] [B,D]2 [B,_C] | [A,C]3 [F,C]3 z3 | %15
 [G,C]2 [G,C] ([G,C]2 [G,C]) ([G,B,]2 G,) | [C,G,]6 |] %17
V:4
 x3 | x9 | x9 | x9 | x9 | x9 | x9 | x9 | x9 | x9 | x9 | x9 | x9 | x9 | x9 | x8 G, | x6 |] %17

